X:1
T:James Gibb editions
T:Psalm 123 (Becker) - Schütz
%%score [ ( 1 2 ) ( 3 4 ) ]
L:1/8
Q:1/4=98
M:2/2
K:C
V:1 treble nm="Soprano Alto"
V:2 treble 
V:3 bass nm="Tenor Bass"
V:4 bass 
V:1
"^Cornelius Becker\n(1561-1604)""^Psalm 123, SWV 228""^Heinrich Schütz\n(1585-1672)" A4 ^G2 A2 | %1
w: ~Ich heb mein|
w: und war- te|
 B4 G4 | A2 B2 c4 | c4 B2 A2 | d4 B4 | (c4 B4) | A8- :|[M:2/2] c4 d2 d2 | B4 B4 | c2 c2 A4 | %10
w: Au- gen|auf zu dir,|Herr Gott ins|Him- mels|Thro\- *|ne,|gleich- wie ein|Knecht muß|sehn al- lein|
w: dar- auf|mit Be- gier,|wann mir dein|Hül- fe|kom\- *|me,||||
 F4 A2 A2 | G4 c4 | B4 A4 | G8 | B4 A2 B2 | c4 B4 | (d4 c4) | B8 |] %18
w: dem Her- ren|in die|Hän- de|sein,|so dei- ner|Gnad ich|le\- *|be.|
w: ||||||||
V:2
 E4 E2 E2 | =G4 D4 | ^F2 G2 G4 | G4 G2 E2 | A4 G4 | (E2 A4 ^G2) | A8 :|[M:2/2] A4 A2 A2 | G4 G4 | %9
 G2 G2 F4 | D4 F2 F2 | E4 G4- | G2 G4 ^F2 | G8 | G4 ^F2 G2 | G4 G4 | (F4 E4) | E8 |] %18
V:3
 C4 B,2 C2 | D4 B,4 | D2 D2 E4 | E4 D2 C2 | F4 E4 | (C3 D E4) | E8 :|[M:2/2] E4 F2 F2 | D4 D4 | %9
 E2 E2 C4 | _B,4 C2 C2 | C4 E4 | %12
"^2. Gleichwie ein Dienstmagd hält die Weis, die da liebt ihre Frauen,\ndrum auf derselben Händ mit Fleiß ihr Augen stetig schauen:\nAlso auch unsre Augen sehn zu dir, Herr, wenn du auf wirst stehn,\nuns Gnade zu beweisen.\n\n3. Sei uns gnädig du treuer Gott, wend nicht von uns dein Güte,\nsonst werden wir dem Feind zu Spott, wo du uns nicht behütest;\ndenn unser Seel ist voller Schmach, der Hoffärtig uns gar veracht,\ndie stolze Rott uns höhnet." D4 D4 | %13
 B,8 | D4 D2 D2 | E4 E4 | A,8 | ^G,8 |] %18
V:4
 A,4 E,2 A,2 | G,4 G,4 | D,2 G,2 C,4 | C,4 G,2 A,2 | D,4 E,4 | (A,4 E,4) | A,8 :| %7
[M:2/2] A,4 D,2 D,2 | G,4 G,4 | C,2 C,2 F,4 | _B,,4 F,2 F,2 | C,4 C,4 | G,4 D,4 | G,8 | %14
 G,4 D,2 G,2 | C,4 E,4 | (D,4 A,,4) | E,8 |] %18

